X:117
T:Pleasures of Sproughton. THO5.117, The
M:6/8
L:1/8
B:Thompson's Complete Collection of 200 Favourite Dances Vol.5
F:https://www.libraryofdance.org/manuals/1780c-Thompson-Compleat-5.pdf
Z:vmp. Peter Dunk 2024
Q:3/8=100
K:D
[fAD]2 f fge|d2 d d3|Ace dfa|(!trill!f3 e3)|
[fAD]2 f fge|d2 d d3|Bgf edc|d3-d3:|
|:A2 A AFD|[BD]2 [BD] [BD]3|dcB AGF|F3 [EA,]3|
A2 A AFD|[BD]2 [BD] [BD]3|Agf edc|d3 D3:|
W:
W:First  & 2nd Couples change sides and back again ./.
W:Lead down two Couples, up again & cast off ./:
W:Lead through the 3rd Couple, cast up and turn your Partner round :/.
W:Lead through the top Couple, cast off & Right & Left :/:

